X:1
T:It Is Well with my Soul
T:It Is Well with my Soul
T:Philip Paul Bliss, 1876
T:Horatio Gates Spafford, 1873
T:Public Domain Courtesy of the Cyber Hymnal™
C:Philip Paul Bliss, 1876
Z:Public Domain
Z:Courtesy of the Cyber Hymnal™
%%score ( 1 2 ) ( 3 4 )
L:1/8
M:4/4
K:Db
V:1 treble 
V:2 treble 
V:3 bass 
V:4 bass 
V:1
 [FA]2 | [FA]4 [EG]2 [DF]2 | [DF]4 [CE]2 [DF]2 | (G2 B2) [CA]2 [EG]2 | [DF]6 [FA]2 | %5
w: 1.~When|peace, like a|riv- er, at-|tend- * eth my|way, When|
w: 2.~Though|Sa- tan should|buf- fet, though|tri- * als should|come, Let|
w: 3.~My|sin, oh, the|bliss of this|glor- * i- ous|thought! My|
w: 4.~And|Lord, haste the|day when my|faith * shall be|sight, The|
 [Fd]4 [Ec]2 [DB]2 | [FB]4 [EA]2 [E=G]2 | [EA]6 [GA]2 | [Fd]4 [Fd]2 [Ac]2 | [GB]4 B2 [AB]2 | %10
w: sor- rows like|sea bil- lows|roll; What-|ev- er my|lot, Thou has|
w: this blest as-|sur- ance con-|trol, That|Christ has re-|gard- ed my|
w: sin, not in|part but the|whole, Is|nailed to the|cross, and I|
w: clouds be rolled|back as a|scroll; The|trump shall re-|sound, and the|
 [Ge]4 [Ge]2 [=Gd]2 | [Ac]4 [AB]2 A2 | [Ad]4 [Dd]2 [Ed]2 | [Fd]4 [Ec]3 [Fd] | [Fd]6 || %15
w: taught me to|say, It is|well, it is|well, with my|soul.|
w: help- less es-|tate, And hath|shed His own|blood for my|soul.|
w: bear it no|more, Praise the|Lord, praise the|Lord, O my|soul!|
w: Lord shall de-|scend, Ev- en|so, it is|well with my|soul.|
"^Refrain" A2 A2 | A4- x4 | [EA]4 A2 A2 | A4 x4 | [FA]4 [DF]2 [FA]2 | [GB]4 [GB]2 [Gd]2 | %21
w: ||||||
w: It is|well,|* it is|well,|* It is|well, it is|
w: ||||||
w: ||||||
 [Fd]4 [Ec]3 [Fd] | [Fd]6 |] %23
w: ||
w: well, with my|soul.|
w: ||
w: ||
V:2
 x2 | x8 | x8 | C4 x4 | x8 | x8 | x8 | x8 | x8 | x4 B2 x2 | x8 | x6 A2 | x8 | x8 | x6 || x4 | %16
 A4 F2 F2 | x4 A2 A2 | A4- E2 G2 | x8 | x8 | x8 | x6 |] %23
V:3
 [D,A,]2 | [D,A,]4 [D,A,]2 A,2 | A,4 [G,A,]2 [F,A,]2 | [E,A,]4 [A,,A,]2 [A,,A,]2 | %4
w: ~|~ ~ ~|~ ~ ~|~ ~ ~|
 [D,A,]6 [D,A,]2 | [B,,B,]4 [C,=A,]2 [D,B,]2 | [D,D]4 [E,C]2 [E,B,]2 | [A,,C]6 [A,C]2 | %8
w: ~ ~|~ ~ ~|~ ~ ~|~ ~|
 [D,D]4 [D,D]2 [F,D]2 | [G,D]4 [G,D]2 [F,=D]2 | [E,E]4 [E,E]2 [E,E]2 | [A,E]4 [A,D]2 C2 | %12
w: ~ ~ ~|~ ~ ~|~ ~ ~|~ ~ ~|
 [F,D]4 [F,A,]2 [G,B,]2 | A,4 [A,,A,]3 [A,,A,] | [D,A,]6 || z4 | z4 [D,A,]2 [F,D]2 | [A,C]4 z4 | %18
w: ~ ~ ~|~ ~ ~|~||with my|soul,|
 z4 [A,,C]2 [A,,E]2 | [D,D]4 [D,A,]2 [D,D]2 | [G,D]4 [G,D]2 [G,B,]2 | A,4 [A,,A,]3 [A,,A,] | %22
w: with my|soul * *|||
 [D,A,]6 |] %23
w: |
V:4
 x2 | x6 (D,F,) | A,4 x4 | x8 | x8 | x8 | x8 | x8 | x8 | x8 | x8 | x6 (A,G,) | x8 | A,4 x4 | x6 || %15
 x4 | x8 | x8 | x8 | x8 | x8 | A,4 x4 | x6 |] %23

